Yaru++/places/symbolic/user-bookmarks-symbolic.svg

<svg height="16" width="16" xmlns="http://www.w3.org/2000/svg">
  <path d="m0 1v13h6c.975 0 1.602.8 1.602.8l.39.518.4-.51s.652-.793 1.612-.808h5.996v-13h-2v1h1v11h-5.008c-1.025.015-1.624.478-1.988.824a2.792 2.792 0 0 0 -2.004-.824h-5v-11h5c.983 0 1.6.799 1.6.799l.4.535.4-.535s.617-.799 1.6-.799v7l3-1v-7h-3c-1.036 0-1.635.465-2 .82-.365-.355-.964-.82-2-.82zm3 3v1h3v-1zm0 2v1h3v-1zm0 2v1h3v-1zm0 2v1h3v-1z" fill="#808080"/>
</svg>

<svg height="16" width="16" xmlns="http://www.w3.org/2000/svg">
    <path d="M0 1v13h6c.975 0 1.602.8 1.602.8l.39.518.4-.51s.652-.793 1.612-.808H16V1h-2v1h1v11H9.992c-1.025.015-1.624.478-1.988.824A2.792 2.792 0 0 0 6 13H1V2h5c.983 0 1.6.799 1.6.799l.4.535.4-.535S9.017 2 10 2v7l3-1V1h-3c-1.036 0-1.635.465-2 .82C7.635 1.465 7.036 1 6 1zm3 3v1h3V4zm0 2v1h3V6zm0 2v1h3V8zm0 2v1h3v-1z" style="line-height:normal;font-variant-ligatures:none;font-variant-position:normal;font-variant-caps:normal;font-variant-numeric:normal;font-variant-alternates:normal;font-feature-settings:normal;text-indent:0;text-align:start;text-decoration-line:none;text-decoration-style:solid;text-decoration-color:#000;text-transform:none;shape-padding:0;isolation:auto;mix-blend-mode:normal;marker:none" color="#000" font-weight="400" font-family="sans-serif" white-space="normal" overflow="visible" fill="gray"/>
</svg>
